components/Common/Svg/svgs/dataProtection.svg

<svg
  width="40"
  height="41"
  viewBox="0 0 40 41"
  fill="none"
  xmlns="http://www.w3.org/2000/svg"
>
  <path
    d="M16 16C22.0751 16 27 13.3137 27 10C27 6.68629 22.0751 4 16 4C9.92487 4 5 6.68629 5 10C5 13.3137 9.92487 16 16 16Z"
    stroke="#161616"
    stroke-width="2"
    stroke-linecap="round"
    stroke-linejoin="round"
  ></path>
  <path
    d="M5 10V16C5 19.3137 9.92487 22 16 22C22.0751 22 27 19.3137 27 16V10"
    stroke="#161616"
    stroke-width="2"
    stroke-linecap="round"
    stroke-linejoin="round"
  ></path>
  <path
    d="M5 16V22C5 25.3137 9.92487 28 16 28C22.0751 28 27 25.3137 27 22V16"
    stroke="#161616"
    stroke-width="2"
    stroke-linecap="round"
    stroke-linejoin="round"
  ></path>
  <path
    d="M18.3984 25.8666V20C18.3984 19.7878 18.4827 19.5843 18.6328 19.4343C18.7828 19.2842 18.9863 19.2 19.1984 19.2H35.1984C35.4106 19.2 35.6141 19.2842 35.7641 19.4343C35.9142 19.5843 35.9984 19.7878 35.9984 20V25.8666C35.9984 34.2682 28.8678 37.0516 27.4441 37.5237C27.2849 37.5785 27.112 37.5785 26.9528 37.5237C25.529 37.0516 18.3984 34.2682 18.3984 25.8666Z"
    fill="#FFF281"
    stroke="#161616"
    stroke-width="2"
    stroke-linecap="round"
    stroke-linejoin="round"
  ></path>
  <path
    d="M31.5969 24.8L25.7302 30.4L22.7969 27.6"
    stroke="#161616"
    stroke-width="2"
    stroke-linecap="round"
    stroke-linejoin="round"
  ></path>
</svg>

<svg width="40" height="41" viewBox="0 0 40 41" fill="none" xmlns="http://www.w3.org/2000/svg"><path d="M16 16c6.075 0 11-2.686 11-6s-4.925-6-11-6S5 6.686 5 10s4.925 6 11 6Z" stroke="#161616" stroke-width="2" stroke-linecap="round" stroke-linejoin="round"/><path d="M5 10v6c0 3.314 4.925 6 11 6s11-2.686 11-6v-6" stroke="#161616" stroke-width="2" stroke-linecap="round" stroke-linejoin="round"/><path d="M5 16v6c0 3.314 4.925 6 11 6s11-2.686 11-6v-6" stroke="#161616" stroke-width="2" stroke-linecap="round" stroke-linejoin="round"/><path d="M18.398 25.867V20a.8.8 0 0 1 .8-.8h16a.8.8 0 0 1 .8.8v5.867c0 8.401-7.13 11.185-8.554 11.657a.755.755 0 0 1-.491 0c-1.424-.472-8.555-3.256-8.555-11.657Z" fill="#FFF281" stroke="#161616" stroke-width="2" stroke-linecap="round" stroke-linejoin="round"/><path d="m31.597 24.8-5.867 5.6-2.933-2.8" stroke="#161616" stroke-width="2" stroke-linecap="round" stroke-linejoin="round"/></svg>
